X:158
T:New Jenny Lind Polka
I:abc2nwc
M:2/4
L:1/16
K:D
|:F2A2 G2B2|A2f2 f=f^f2|G2e2 e^de2|F2d2 dcd2|
|F2A2 G2B2|A2f2 f=f^f2|G2e2 e^de2|1d2d2 d2A2:|2d2d2d4|
|:d2B2 B^AB2|A2F2 F=F^F2|G2E2 E^DE2|F2D2 DCD2|
|d2B2 B^AB2|A2F2 F=F^F2|G2E2 E^DE2|1D2d2 d4 :|2D2d2 d2A2|
